file/universidad-tecmilenio.svg

<svg clip-rule="evenodd" fill-rule="evenodd" stroke-linejoin="round" stroke-miterlimit="1.41421" viewBox="0 0 560 400" xmlns="http://www.w3.org/2000/svg"><path d="m287 108.1v-9.2h-2.9c-23.3 0-44.5 9.3-60.1 24.3-15.6-15-36.8-24.3-60.1-24.3h-2.9v9.2h2.9c20.9 0 39.9 8.3 53.8 21.8-2.7 3.3-5.2 6.8-7.5 10.4-11.8-12.1-28.2-19.6-46.3-19.6h-2.9v9.2h2.9c15.9 0 31 6.8 41.7 19-2.1 4.5-3.9 9.3-5.2 14.2-7.5-12.3-21.1-20.5-36.5-20.5h-2.9v9.2h2.9c18.5 0 33.6 15.1 33.6 33.6v43.4h9.2v-43.4c0-9.8 1.8-19.2 5.2-27.8 4.8 8.2 7.5 17.7 7.5 27.8v43.4h9.2v-43.4c0-10.1 2.7-19.6 7.5-27.8 3.3 8.6 5.2 18 5.2 27.8v43.4h9.2v-43.4c0-18.5 15.1-33.6 33.6-33.6h2.9v-9.2h-2.9c-15.4 0-29 8.2-36.5 20.5-1.3-4.9-3.1-9.7-5.2-14.2 10.8-12.1 25.8-19 41.7-19h2.9v-9.2h-2.9c-18.1 0-34.6 7.5-46.3 19.6-2.3-3.6-4.8-7.1-7.5-10.4 13.9-13.5 32.9-21.8 53.8-21.8zm-55.5 39.8c-3 4.2-5.6 8.8-7.5 13.7-1.9-4.9-4.5-9.5-7.5-13.7 2.2-3.9 4.7-7.6 7.5-11.1 2.8 3.5 5.3 7.2 7.5 11.1z" fill="#2da546" fill-rule="nonzero" transform="matrix(2.07852 0 0 2.07852 -185.589 -140.566)"/></svg>

<?xml version="1.0" encoding="UTF-8" standalone="no"?>
<!DOCTYPE svg PUBLIC "-//W3C//DTD SVG 1.1//EN" "http://www.w3.org/Graphics/SVG/1.1/DTD/svg11.dtd">
<svg width="100%" height="100%" viewBox="0 0 560 400" version="1.1" xmlns="http://www.w3.org/2000/svg" xmlns:xlink="http://www.w3.org/1999/xlink" xml:space="preserve" xmlns:serif="http://www.serif.com/" style="fill-rule:evenodd;clip-rule:evenodd;stroke-linejoin:round;stroke-miterlimit:1.41421;">
    <g transform="matrix(2.07852,0,0,2.07852,-185.589,-140.566)">
        <path d="M287,108.1L287,98.9L284.1,98.9C260.8,98.9 239.6,108.2 224,123.2C208.4,108.2 187.2,98.9 163.9,98.9L161,98.9L161,108.1L163.9,108.1C184.8,108.1 203.8,116.4 217.7,129.9C215,133.2 212.5,136.7 210.2,140.3C198.4,128.2 182,120.7 163.9,120.7L161,120.7L161,129.9L163.9,129.9C179.8,129.9 194.9,136.7 205.6,148.9C203.5,153.4 201.7,158.2 200.4,163.1C192.9,150.8 179.3,142.6 163.9,142.6L161,142.6L161,151.8L163.9,151.8C182.4,151.8 197.5,166.9 197.5,185.4L197.5,228.8L206.7,228.8L206.7,185.4C206.7,175.6 208.5,166.2 211.9,157.6C216.7,165.8 219.4,175.3 219.4,185.4L219.4,228.8L228.6,228.8L228.6,185.4C228.6,175.3 231.3,165.8 236.1,157.6C239.4,166.2 241.3,175.6 241.3,185.4L241.3,228.8L250.5,228.8L250.5,185.4C250.5,166.9 265.6,151.8 284.1,151.8L287,151.8L287,142.6L284.1,142.6C268.7,142.6 255.1,150.8 247.6,163.1C246.3,158.2 244.5,153.4 242.4,148.9C253.2,136.8 268.2,129.9 284.1,129.9L287,129.9L287,120.7L284.1,120.7C266,120.7 249.5,128.2 237.8,140.3C235.5,136.7 233,133.2 230.3,129.9C244.2,116.4 263.2,108.1 284.1,108.1L287,108.1ZM231.5,147.9C228.5,152.1 225.9,156.7 224,161.6C222.1,156.7 219.5,152.1 216.5,147.9C218.7,144 221.2,140.3 224,136.8C226.8,140.3 229.3,144 231.5,147.9Z" style="fill:rgb(45,165,70);fill-rule:nonzero;"/>
    </g>
</svg>
